X:22
T:T014B- The Priest in his Boots
S:D. Rutherford's Twelve Selected Country Dances ..for 1763
N:(bass omitted)
Q:1/4=120
L:1/8
M:6/8
K:D
e2e e2e|efd cBA|d2d fed|cAc e3|\
e2e e2e|efd cBA|d2g f/2g/2af|gec d3::\
a2f g2e|efd c2A|d2d fed|c2d efg|\
a2fg2e|afd cBA|B/2c/2dg f/2g/2ag|gecd3:|]

